assets/icons/24px/outline/arrow-circle-backward-twenty-24px.svg

<svg width="24" height="24" viewBox="0 0 24 24" fill="none" xmlns="http://www.w3.org/2000/svg">
<path d="M4.12222 13.2857C4.12222 17.5462 7.08172 21 11.5 21C15.9183 21 19.5 17.9415 19.5 13.2857C19.5 8.62985 15.9183 5.57136 11.5 5.57136L4.5 5.57137M4.5 5.57137L7.16665 3M4.5 5.57137L7.16665 8.14288" stroke="white" stroke-width="2" stroke-linecap="round" stroke-linejoin="round"/>
<path d="M11 16.4998L8 16.5L10.25 13.4008C12.5 10.3019 8.00004 9.52719 8.00004 11.8514M13 13.5C13 11.1893 13.5 10.5 14.5 10.5C15.5 10.5 16 11.3107 16 13.5C16 15.6893 15.5 16.5 14.5 16.5C13.5 16.5 13 15.8107 13 13.5Z" stroke="white" stroke-linecap="round" stroke-linejoin="round"/>
</svg>

<svg width="24" height="24" fill="none" xmlns="http://www.w3.org/2000/svg"><path d="M4.122 13.286c0 4.26 2.96 7.714 7.378 7.714s8-3.058 8-7.714c0-4.656-3.582-7.715-8-7.715h-7m0 0L7.167 3M4.5 5.571l2.667 2.572" stroke="#fff" stroke-width="2" stroke-linecap="round" stroke-linejoin="round"/><path d="M11 16.5H8l2.25-3.1C12.5 10.303 8 9.528 8 11.852m5 1.649c0-2.31.5-3 1.5-3s1.5.81 1.5 3-.5 3-1.5 3-1.5-.69-1.5-3z" stroke="#fff" stroke-linecap="round" stroke-linejoin="round"/></svg>
